X: 1
T: Mr Welch's Favourite
R: reel
M: 4/4
L: 1/8
K: Dmaj
DE|EFDF AdBd|ABAF A2 DE|EFDF AdBd|AdFd E2 DE|
EFDF Addf|eddA B2 AB|BdAB dfAF|EDFE D2:|
|:AB|BdAd fABd|DFAB F2 AB|BdAd fABd|AdFd E2 AB|
BdAd fABd|DFAd B2 AB|BdAB dfAF|EDFE D2:|

